X: 20512
T: WEBB'S QUICKSTEP
C:
%R: quickstep, polka
B: Elias Howe "The Musician's Companion" 1843 p.51 #2
S: http://imslp.org/wiki/The_Musician's_Companion_(Howe,_Elias)
Z: 2015 John Chambers <jc:trillian.mit.edu>
N: Note the nested repeat symbols in the 2nd strain.
M: 2/4
L: 1/16
K: F
% - - - - - - - - - - - - - - - - - - - - - - - - -
c2 |\
f2ff f2c2 | f2ff f2c2 | f2c2A2F2 | c2ccc2 a2 |\
g2g2g2a2 | g2g2g2a2 | b2b2 a2a2 | (a4 g2) :|
|: (AB) |\
c2ccc2c2 | c4 dcBA | B2BBB2B2 | B4 cBAG |:\
A2AB c2B2 :| AGAB A2G2 | F4 z2 :|
% - - - - - - - - - - - - - - - - - - - - - - - - -

%%sep 1 1 500

